X: 13
T: Le Maître de Maison
M: 2/4
L: 1/8
R: branle
K: Am
E|"Am"Ae ed | e2c2 | "C"ee dc | "Em"B3 A|"Am"Ae ed | e2 c2 | "C"e2 dc | "Em"B3 c/B/ |
"Am"Ac "Em"Bc/B/ | "Am"Ac "Em"Bc/B/ | "Am"Ac "Em"Bc/B/ | "Em"Ac "G"B2 |"Am"A2 e2 | "G"d2 cB | "Am"A3 :|
|: A |"Am"AG AB | c3 A | "C"c2 "G"d2 | "C"e3 e | "Dm"fe ed | "Am"e2 ce | "Dm"dc BA | "Em"B4 | "Am"A2 "Em"G2 | "Am"A3  :|

